X: 26
T: Missa [Ad fugam] / Agnus Dei
N: Derived from Ort1006e-Missa_Ad_fugam-Agnus.krn
C: Marbrianus de Orto
%%abc-version 2.0
%%abcx-abcm2ps-target-version 5.9.1 (29 Sep 2008)
%%abc-creator hum2abc beta
%%abcx-conversion-date 2019/02/17 07:28:37
%%abc-edited-by Jesse Rodin
%%abc-edited-by Jesse Rodin 8/8/2013
%%abcx-initial-encoding-date 2013/08/09/
%%humdrum-veritas 4058777719
%%humdrum-veritas-data 2450701853
%%linebreak <none>
%%barnumbers 0
L: 1/4
M: 3/1
Q: 1/2=120
%%staves [1 2 3 4]
V: 1 clef=treble
V: 2 clef=treble-8
V: 3 clef=treble-8
V: 4 clef=bass
K: F
[V:1] z12 | 
[V:2] z4z4d4 | 
[V:3] z12 | 
[V:4] G,4B,2A,2G,4 | 
[V:1] G8B4 | 
[V:2] e4d8 | 
[V:3] z12 | 
[V:4] C,4G,4G,4 | 
[V:1] A4G8 | 
[V:2] z2c4G2c4 | 
[V:3] c8_e4 | 
[V:4] F,4_E,4C,4 | 
[V:1] F2A4GFE4 | 
[V:2] A8A4 | 
[V:3] d4c8 | 
[V:4] D,4A,,8 | 
[V:1] D3EF2G4^F2 | 
[V:2] F2G2D2d4d2 | 
[V:3] B2d4cBA4 | 
[V:4] B,,6G,,2D,4 | 
[V:1] G4z4z4 | 
[V:2] B3cdef4e2 | 
[V:3] G3AB2c4B2 | 
[V:4] G,,2G,4F,2G,4 | 
[V:1] A8A4 | 
[V:2] f6d2c2f2- | 
[V:3] c4z4z4 | 
[V:4] F,8F,2D,2- | 
[V:1] A4B4A2B2 | 
[V:2] f2f2B2G2F2G2 | 
[V:3] d8d4 | 
[V:4] D,2F,2G,4D,2B,,2 | 
[V:1] A4G4z2c2- | 
[V:2] D2A2c4z2G2- | 
[V:3] d4_e4d2_e2 | 
[V:4] F,4C,4B,,2C,2 | 
[V:1] c2B2c4A4 | 
[V:2] G4A2G2F4 | 
[V:3] d4c4z2f2- | 
[V:4] G,,4z2C,2D,4 | 
[V:1] z4A4B2A2 | 
[V:2] A2B2c4B2f2 | 
[V:3] f2_e2f4d4 | 
[V:4] F,2G,2F,4G,2D,2 | 
[V:1] G2B2A4z2A2- | 
[V:2] d4z2A2B2A2 | 
[V:3] z4d4_e2d2 | 
[V:4] G,4F,4_E,2F,2- | 
[V:1] A2G2F2A3GF2 | 
[V:2] F2c2A4F3D | 
[V:3] c2_e2d4z2d2- | 
[V:4] F,2C,2D,4D,4 | 
[V:1] E4D4z2D2- | 
[V:2] A4z2f3dg2- | 
[V:3] d2c2B2d3cB2 | 
[V:4] A,,4z4z4 | 
[V:1] D2C2B,2D3CB,2 | 
[V:2] g2^f2g4d4- | 
[V:3] A4G4z2G2- | 
[V:4] z4G,,4B,,2G,,2 | 
[V:1] A,4z4z2G2- | 
[V:2] d4z2_e3dc2 | 
[V:3] G2F2_E2G3F_E2 | 
[V:4] D,4C,4G,4 | 
[V:1] G2F2E2G3FE2 | 
[V:2] d4z2e2d2g2- | 
[V:3] D4z4z2c2- | 
[V:4] A,3B,C3B,G,2C,2 | 
[V:1] D4z4z2c2- | 
[V:2] gfdef4e2c2 | 
[V:3] c2B2A2c3BA2 | 
[V:4] G,4F,4z4 | 
[V:1] c2B2A2c3BA2 | 
[V:2] d4c3BAGF2 | 
[V:3] G4z4z2f2- | 
[V:4] z4F,8 | 
[V:1] G4z4z2B2- | 
[V:2] c2G2B2d3cB2 | 
[V:3] f2_e2d2f3_ed2 | 
[V:4] C,4B,,8 | 
[V:1] B2A2G2F2G4 | 
[V:2] F2f2d4B2c2- | 
[V:3] c4z4z2_e2- | 
[V:4] F,4G,2D,2_E,2C,2 | 
[V:1] z2F2G3FE4 | 
[V:2] c2A2G4G3A | 
[V:3] e2d2c2B2c4 | 
[V:4] z2D,2_E,4C,4 | 
[V:1] DEFGA2G4^F2 | 
[V:2] Bcdef2e2d4- | 
[V:3] z2B2c3BA4 | 
[V:4] G,2D,G,F,2C,2D,4 | 
[V:1] G12 ||  
[V:2] d12 ||  
[V:3] G12 ||  
[V:4] G,,12 ||  
[V:1]  [K:F] [K:clef=treble][M:2/1]z8 | 
[V:2]  [K:F] [K:clef=treble-8][M:2/1]A4B4 | 
[V:3]  [K:F] [K:clef=treble-8][M:2/1]z8 | 
[V:4]  [K:F] [K:clef=bass][M:2/1]D,8 | 
[V:1] z8 | 
[V:2] A3Bc2d2- | 
[V:3] z8 | 
[V:4] F,4E,2D,2 | 
[V:1] z8 | 
[V:2] d2cBA2B2 | 
[V:3] z8 | 
[V:4] G,4D,3E, | 
[V:1] z8 | 
[V:2] A2B4AG | 
[V:3] z8 | 
[V:4] F,2G,4F,E, | 
[V:1] z8 | 
[V:2] F2G2F2G2 | 
[V:3] z8 | 
[V:4] D,2C,B,,A,,2B,,2 | 
[V:1] z8 | 
[V:2] z2G2F2G2- | 
[V:3] z8 | 
[V:4] A,,2B,,4G,,2 | 
[V:1] z8 | 
[V:2] GAB2A2c2- | 
[V:3] z8 | 
[V:4] G,4F,2E,D, | 
[V:1] z8 | 
[V:2] cBAG^F3E | 
[V:3] z8 | 
[V:4] C,2B,,2A,,4 | 
[V:1] D4E4 | 
[V:2] G2B2A2G2 | 
[V:3] z4z2G2- | 
[V:4] G,,4C,4 | 
[V:1] D3EF2G2 | 
[V:2] B2A2d2B2- | 
[V:3] G2A4G2- | 
[V:4] z2D,4_E,2 | 
[V:1] D4z2G2 | 
[V:2] Bcdef2d2 | 
[V:3] GAB2c2G2- | 
[V:4] G,4F,2B,2- | 
[V:1] B4A2G2- | 
[V:2] d4A2B2 | 
[V:3] G2z2c2_e2- | 
[V:4] B,2G,2F,2_E,2 | 
[V:1] G2A4G2 | 
[V:2] cBAGF2G2 | 
[V:3] e2d2c4 | 
[V:4] C,2F,4_E,2 | 
[V:1] F4G4 | 
[V:2] A4z2G2- | 
[V:3] d4c2B2- | 
[V:4] D,4z4 | 
[V:1] z4G4- | 
[V:2] G2C4G2 | 
[V:3] B2c4z2 | 
[V:4] _E,6C,2 | 
[V:1] G4E4- | 
[V:2] E2G2A3G | 
[V:3] z2c6- | 
[V:4] C,6A,,2 | 
[V:1] E4A4- | 
[V:2] E2c4c2 | 
[V:3] c2A6- | 
[V:4] A,,4A,,4 | 
[V:1] A4F4- | 
[V:2] d2f4d2- | 
[V:3] A2d6- | 
[V:4] D,6B,,2 | 
[V:1] F4z2F2- | 
[V:2] d2GABcd2- | 
[V:3] d2B6- | 
[V:4] B,,4G,,2B,,2- | 
[V:1] FED2G2F2 | 
[V:2] def2B4 | 
[V:3] B2z2B3A | 
[V:4] B,,C,D,2_E,2D,2 | 
[V:1] G2E2z2A2- | 
[V:2] B2c2d2f2- | 
[V:3] G2c2B2c2 | 
[V:4] _E,2C,2G,2F,2- | 
[V:1] AGF2B2A2 | 
[V:2] f2f2f3e | 
[V:3] A2z2d3c | 
[V:4] F,_E,D,C,B,,2F,2 | 
[V:1] B2G2z4 | 
[V:2] dcB4c2 | 
[V:3] B2_e2d2_e2 | 
[V:4] G,4z2C,2 | 
[V:1] z8 | 
[V:2] G3AB3c | 
[V:3] c2z2z4 | 
[V:4] _E,4D,2G,2- | 
[V:1] z8 | 
[V:2] d3cdef2- | 
[V:3] z8 | 
[V:4] G,2F,2B,2A,2 | 
[V:1] z8 | 
[V:2] f2g4^f2 | 
[V:3] z8 | 
[V:4] B,2G,2A,4 | 
[V:1] B8 | 
[V:2] g4G3A | 
[V:3] z4z2_e2- | 
[V:4] G,4_E,4 | 
[V:1] G8 | 
[V:2] B2c4G2- | 
[V:3] e6c2- | 
[V:4] z4C,2C,2- | 
[V:1] c8 | 
[V:2] G2c4A2 | 
[V:3] c6f2- | 
[V:4] C,2C,4F,2- | 
[V:1] A8 | 
[V:2] d4dcBA | 
[V:3] f6d2- | 
[V:4] F,4D,2D,C, | 
[V:1] z2D2F4 | 
[V:2] B4A2B2 | 
[V:3] d6z2 | 
[V:4] B,,A,,G,,2D,4 | 
[V:1] E2D4E2- | 
[V:2] c2F2G2z2 | 
[V:3] G2B4A2 | 
[V:4] C,2B,,2G,,2C,2- | 
[V:1] E2D2E2C2 | 
[V:2] c2d2c4 | 
[V:3] G4A4 | 
[V:4] C,2B,,2A,,4 | 
[V:1] D2F4D2 | 
[V:2] B2F4B2- | 
[V:3] G2A2F2G2 | 
[V:4] z2D,3C,B,,A,, | 
[V:1] D4G4- | 
[V:2] Bcd4c2- | 
[V:3] B4G2G2- | 
[V:4] G,,6C,2- | 
[V:1] G2E2E4 | 
[V:2] cBG2A3B | 
[V:3] G2c6 | 
[V:4] C,4A,,4- | 
[V:1] z2F2E2D2 | 
[V:2] c2F2c2d2- | 
[V:3] A2A4z2 | 
[V:4] A,,2D,2C,2B,,C, | 
[V:1] F4z2G2 | 
[V:2] d2d2B3c | 
[V:3] B2A2G2B2- | 
[V:4] D,4_E,4 | 
[V:1] F2G2A2D2 | 
[V:2] d2_e2f2B2 | 
[V:3] B2z2c2B2 | 
[V:4] D,2C,2F,2G,2 | 
[V:1] z4DEFG | 
[V:2] f4B2f2- | 
[V:3] c2d2G2z2 | 
[V:4] F,2D,2G,2D,2 | 
[V:1] A2B4A2 | 
[V:2] f2d3ef2 | 
[V:3] z2GABcd2 | 
[V:4] F,2G,4F,2 | 
[V:1] c2BAB2A2 | 
[V:2] g2G4c2 | 
[V:3] _e4d2f2 | 
[V:4] C,4G,2F,2 | 
[V:1] z2G2B2AG | 
[V:2] B4z2B2 | 
[V:3] _ed_e2d2z2 | 
[V:4] G,4G,4 | 
[V:1] A2G2z2D2 | 
[V:2] F2c2BAB2 | 
[V:3] c2_e2dcd2 | 
[V:4] z2C,2G,4 | 
[V:1] E2F2G2F2- | 
[V:2] c2A2c2d2- | 
[V:3] c2z2G2A2 | 
[V:4] C,2D,2_E,2D,2 | 
[V:1] F2E2F2G2 | 
[V:2] d2c2d2_e2 | 
[V:3] B2c2B4 | 
[V:4] B,,2z2B,,2_E,2 | 
[V:1] A2G3EA2- | 
[V:2] d4cBAG | 
[V:3] A2B2c2d2 | 
[V:4] F,2G,2C,2F,2- | 
[V:1] AGA2^F3E | 
[V:2] F3GA4 | 
[V:3] c3Ad3c | 
[V:4] F,2D,2D,4 | 
[V:1] G8 ||  
[V:2] G8 ||  
[V:3] d8 ||  
[V:4] G,,8 ||  



